icons/terrafile.svg

<svg width="16" height="16" viewBox="0 0 16 16" fill="none" xmlns="http://www.w3.org/2000/svg">
<path fill-rule="evenodd" clip-rule="evenodd" d="M4 3.5H12C12.2761 3.5 12.5 3.72386 12.5 4V5.46428L10.1429 6.64285V9.49999L12.5 8.32142V12C12.5 12.2761 12.2761 12.5 12 12.5H9.42857V10.2143L6.57143 8.78571V12.5H4C3.72386 12.5 3.5 12.2761 3.5 12V6.5357L5.85714 7.71427V4.85713L3.58498 3.72105C3.67478 3.58771 3.82715 3.5 4 3.5ZM2 4C2 2.89543 2.89543 2 4 2H12C13.1046 2 14 2.89543 14 4V12C14 13.1046 13.1046 14 12 14H4C2.89543 14 2 13.1046 2 12V4ZM6.57143 5.21428L9.42857 6.64285V9.49999L6.57143 8.07142V5.21428Z" fill="#7A6DF4"/>
</svg>

<svg xmlns="http://www.w3.org/2000/svg" width="16" height="16" fill="none"><path fill="#7A6DF4" fill-rule="evenodd" d="M4 3.5h8a.5.5 0 0 1 .5.5v1.464l-2.357 1.179V9.5L12.5 8.321V12a.5.5 0 0 1-.5.5H9.429v-2.286L6.57 8.786V12.5H4a.5.5 0 0 1-.5-.5V6.536l2.357 1.178V4.857L3.585 3.721A.5.5 0 0 1 4 3.5ZM2 4a2 2 0 0 1 2-2h8a2 2 0 0 1 2 2v8a2 2 0 0 1-2 2H4a2 2 0 0 1-2-2V4Zm4.571 1.214L9.43 6.643V9.5L6.57 8.071V5.214Z" clip-rule="evenodd"/></svg>
